image/china-on7.svg

<svg width="34" height="34" viewBox="0 0 34 34" fill="none" xmlns="http://www.w3.org/2000/svg">
<path d="M17 8L19.472 12.9369L25 13.7334L21 17.5741L21.944 23L17 20.4369L12.056 23L13 17.5741L9 13.7334L14.528 12.9369L17 8Z" stroke="#E03D3B" stroke-width="2" stroke-linecap="round" stroke-linejoin="round"/>
<path d="M17 32C17 32 29 26 29 17V6.5L17 2L5 6.5V17C5 26 17 32 17 32Z" stroke="#E03D3B" stroke-width="2" stroke-linecap="round" stroke-linejoin="round"/>
</svg>

<?xml version="1.0" encoding="UTF-8" standalone="no"?>
<svg width="34" xmlns="http://www.w3.org/2000/svg" fill="none" viewBox="0 0 34 34" height="34">
 <path stroke-linejoin="round" stroke="#E03D3B" stroke-width="2" stroke-linecap="round" d="m17 8l2.472 4.937 5.528 0.796-4 3.841 0.944 5.426-4.944-2.563-4.944 2.563 0.944-5.426-4-3.841 5.528-0.796 2.472-4.937z"/>
 <path stroke-linejoin="round" stroke="#E03D3B" stroke-width="2" stroke-linecap="round" d="m17 32s12-6 12-15v-10.5l-12-4.5-12 4.5v10.5c0 9 12 15 12 15z"/>
</svg>
